!!!OTL: Alan he ahua
!!!ARE: Asia, China,ÿZhejiang Dongtou
!! III, 613, 1)
!!!SCT: C2069
!!!YEM: Copyright 1995, estate of Helmut Schaffrath.
**kern
*ICvox
*Ivox
!! Mixed meters:  2/4; 3/4
*M2/4
*k[]
*C:
{8e
4e
8g
=1
*M3/4
8e
8d
2e
=2
*M2/4
8e
4g
8d
=3
2e}
=4
{8A
4e
8d
=5
4c
8d
8c
=6
2A}
=7
{8d
8e
8d
8c
=8
*M3/4
8A
8c
2A}
=9
*M2/4
{8e
4e
8g
=10
8e
8d
8e
16e
16e
=11
8e
4g
8d
=12
2e}
=13
{8A
4e
8d
=14
4c
8d
8c
=15
2A}
=16
{8d
8e
8d
8c
=17
8A
8c
2A}
==
!!!AGN: Xiaodiao
!!!AMT: irregular
!!!AIN: vox
!!!EED: Helmut Schaffrath
!!!EEV: 1.0
*-
